Simply-Orange-Circles/scalable/mimes/application-x-lhz.svg

<?xml version="1.0" encoding="UTF-8" standalone="no"?><svg xmlns:dc="http://purl.org/dc/elements/1.1/" xmlns:cc="http://creativecommons.org/ns#" xmlns:rdf="http://www.w3.org/1999/02/22-rdf-syntax-ns#" xmlns="http://www.w3.org/2000/svg" width="48" height="48" viewBox="0 0 12.7 12.7"><metadata><rdf:RDF><cc:Work><dc:format>image/svg+xml</dc:format><dc:type rdf:resource="http://purl.org/dc/dcmitype/StillImage"/><dc:title/></cc:Work></rdf:RDF></metadata><path d="M1.21.86L.14 3.66h6.04V.86H1.21zm5.18 0v2.8h6.11L11.4.86H6.4zM.19 3.89v6.31c0 .64.25 1.18.74 1.64.5.45 1.08.67 1.78.67h7.25c.7 0 1.28-.22 1.78-.67.49-.46.73-1 .73-1.64V3.9h-1.12v6.3c0 .36-.13.66-.4.91a1.4 1.4 0 0 1-.99.38H2.71a1.4 1.4 0 0 1-.99-.38 1.19 1.19 0 0 1-.41-.9V3.88H.19zm1.53 1.4v1.06H2v1.06h.53V6.35h.26V5.29H1.72zm1.32.05v.53h.53v-.53h-.53zm.53.53v.53h.53v-.53h-.53zm.53 0h.53v-.53H4.1v.53zm.53 0v.53h.53v-.53h-.53zm.53 0h.52v-.53h-.52v.53zm.52 0v.53h.53v-.53h-.53zm.53 0h.53v-.53h-.53v.53zm.53 0v.53h.53v-.53h-.53zm.53 0h.53v-.53h-.53v.53zm.53 0v.53h.53v-.53H7.8zm.53 0h.53v-.53h-.53v.53zm.53 0v.53h.53v-.53h-.53zm.53 0h.53v-.53h-.53v.53zm.53 0v.53h.53v-.53h-.53zm.53 0h.53v-.53h-.53v.53zm-8.46-.31h.53v.53h-.53v-.53zM4.1 7.87v2.35h.42V7.87h-.42zm1.06 0v2.35h.42v-.9c0-.17.02-.27.06-.35.06-.1.17-.17.31-.17.25 0 .35.15.35.52v.9h.42v-1c0-.25-.03-.4-.12-.53-.12-.18-.32-.28-.57-.28a.63.63 0 0 0-.45.17v-.71h-.42zm2.16.58v.37h.69l-.78 1v.39h1.34v-.38h-.83l.77-1v-.38H7.33z" fill="#ff7f2a"/></svg>

<?xml version="1.0" encoding="UTF-8" standalone="no"?>
<svg
   xmlns:dc="http://purl.org/dc/elements/1.1/"
   xmlns:cc="http://creativecommons.org/ns#"
   xmlns:rdf="http://www.w3.org/1999/02/22-rdf-syntax-ns#"
   xmlns:svg="http://www.w3.org/2000/svg"
   xmlns="http://www.w3.org/2000/svg"
   xmlns:sodipodi="http://sodipodi.sourceforge.net/DTD/sodipodi-0.dtd"
   xmlns:inkscape="http://www.inkscape.org/namespaces/inkscape"
   width="48"
   height="48"
   viewBox="0 0 12.7 12.7"
   version="1.1"
   id="svg6"
   sodipodi:docname="application-x-lhz.svg"
   inkscape:version="0.92.4 (5da689c313, 2019-01-14)">
  <defs
     id="defs10" />
  <sodipodi:namedview
     pagecolor="#ffffff"
     bordercolor="#666666"
     borderopacity="1"
     objecttolerance="10"
     gridtolerance="10"
     guidetolerance="10"
     inkscape:pageopacity="0"
     inkscape:pageshadow="2"
     inkscape:window-width="1087"
     inkscape:window-height="480"
     id="namedview8"
     showgrid="false"
     inkscape:zoom="4.9166667"
     inkscape:cx="2.1355932"
     inkscape:cy="24"
     inkscape:window-x="0"
     inkscape:window-y="25"
     inkscape:window-maximized="0"
     inkscape:current-layer="svg6" />
  <metadata
     id="metadata2">
    <rdf:RDF>
      <cc:Work>
        <dc:format>image/svg+xml</dc:format>
        <dc:type
           rdf:resource="http://purl.org/dc/dcmitype/StillImage" />
        <dc:title></dc:title>
      </cc:Work>
    </rdf:RDF>
  </metadata>
  <path
     d="m 1.21,0.86 -1.07,2.8 h 6.04 v -2.8 z m 5.18,0 v 2.8 h 6.11 l -1.1,-2.8 h -5 z m -6.2,3.03 v 6.31 c 0,0.64 0.25,1.18 0.74,1.64 0.5,0.45 1.08,0.67 1.78,0.67 h 7.25 c 0.7,0 1.28,-0.22 1.78,-0.67 0.49,-0.46 0.73,-1 0.73,-1.64 V 3.9 h -1.12 v 6.3 c 0,0.36 -0.13,0.66 -0.4,0.91 A 1.4,1.4 0 0 1 9.96,11.49 H 2.71 A 1.4,1.4 0 0 1 1.72,11.11 1.19,1.19 0 0 1 1.31,10.21 V 3.88 H 0.19 Z m 1.53,1.4 V 6.35 H 2 V 7.41 H 2.53 V 6.35 H 2.79 V 5.29 Z M 3.04,5.34 V 5.87 H 3.57 V 5.34 Z M 3.57,5.87 V 6.4 H 4.1 V 5.87 Z m 0.53,0 H 4.63 V 5.34 H 4.1 Z m 0.53,0 V 6.4 H 5.16 V 5.87 Z m 0.53,0 H 5.68 V 5.34 H 5.16 Z m 0.52,0 V 6.4 H 6.21 V 5.87 Z m 0.53,0 H 6.74 V 5.34 H 6.21 Z m 0.53,0 V 6.4 H 7.27 V 5.87 Z m 0.53,0 H 7.8 V 5.34 H 7.27 Z m 0.53,0 V 6.4 H 8.33 V 5.87 Z m 0.53,0 H 8.86 V 5.34 H 8.33 Z m 0.53,0 V 6.4 H 9.39 V 5.87 Z m 0.53,0 H 9.92 V 5.34 H 9.39 Z m 0.53,0 V 6.4 h 0.53 V 5.87 Z m 0.53,0 h 0.53 V 5.34 H 10.45 Z M 1.99,5.56 H 2.52 V 6.09 H 1.99 Z M 4.1,7.87 v 2.35 H 4.52 V 7.87 Z m 1.06,0 v 2.35 H 5.58 V 9.32 C 5.58,9.15 5.6,9.05 5.64,8.97 5.7,8.87 5.81,8.8 5.95,8.8 6.2,8.8 6.3,8.95 6.3,9.32 v 0.9 h 0.42 v -1 C 6.72,8.97 6.69,8.82 6.6,8.69 6.48,8.51 6.28,8.41 6.03,8.41 A 0.63,0.63 0 0 0 5.58,8.58 V 7.87 Z m 2.16,0.58 v 0.37 h 0.69 l -0.78,1 v 0.39 H 8.57 V 9.83 H 7.74 l 0.77,-1 V 8.45 H 7.33 Z"
     id="path4"
     inkscape:connector-curvature="0"
     style="fill:#ff7f2a" />
</svg>
